!!!OTL: 130. Freylekhs
!!!Genre:	Freylekhs
!!!Mode:	Minor
!!!Listening/dance:	dance
!!!One_Mode:	yes
**kern
*I"P1
*clefG2
*k[b-e-]
*g:
*M2/4
*>A
=1
16gLL
16a
16b-
16ccJJ
8ddL
8ddJ
=2
8ddL
8dd
8dd
8ddJ
=3
8ee-L
8dd
8ee-
8ggJ
=4
4dd
8b-L
8gJ
=5
16gLL
16a
16b-
16ccJJ
8ddL
8ddJ
=6
8ddL
8dd
8dd
8ddJ
=7
8ee-L
8dd
8ee-
8ggJ
=8
2dd
=9||
*>B
8ddL
8ee-
8ff
8ggJ
=10
8ffL
8ee-
8dd
8ccJ
=11
8ggL
8dd
8ee-
8ddJ
=12
2cc
=13
8ccL
8dd
8ee-
8ffJ
=14
8ee-L
8dd
8cc
8b-J
=15
8ddL
8b-
8cc
8gJ
=16
16b-LL
16cc
16b-
16aJJ
16gLL
16a
16b-
16ccJJ
=17
8ddL
16ddL
16b-JJ
8ccL
16ccL
16gJJ
=18
16b-LL
16cc
16b-
16aJJ
4g
=19
8ddL
8b-
8cc
8gJ
=20
16b-LL
16cc
16b-
16aJJ
16gLL
16a
16b-
16ccJJ
=21
8ddL
16ddL
16b-JJ
8ccL
16ccL
16gJJ
=22
16b-LL
16cc
16b-
16aJJ
4g
=23||
*>C
(8qff#X/
2gg)
=24
(8qff#X/
2gg)
=25
4gg
4gg
=26
4gg
4gg
=27
16ggLL
16gg
16gg
16ggJJ
8ffL
8ee-J
=28
8ffL
8ggJ
4dd
=29
16ggLL
16gg
16gg
16ggJJ
8ffL
8ee-J
=30
8ffL
8ggJ
4dd
=31
16ggLL
16gg
16gg
16ggJJ
8ffL
8ee-J
=32
16ffLL
16ff
16ff
16ffJJ
8ee-L
8ddJ
=33
8ccL
8ddJ
16ee-LL
16dd
16ee-
16ggJJ
=34
2dd
==
*-
